svg/u1f514.svg

<svg viewBox="0 0 128 128" xmlns="http://www.w3.org/2000/svg">
  <g>
    <g>
      <path d="M53.32,18.8c0-7.09,5.77-12.86,12.86-12.86s12.86,5.77,12.86,12.86c0,7.09-5.77,12.86-12.86,12.86 S53.32,25.9,53.32,18.8z M60.8,18.8c0,2.97,2.41,5.38,5.38,5.38c2.97,0,5.38-2.41,5.38-5.38c0-2.97-2.41-5.38-5.38-5.38 C63.21,13.42,60.8,15.84,60.8,18.8z" fill="#E2A610"/>
      <path d="M77.24,12.28c0,0,0.57,2.27-2.06,3.51c-2.63,1.23-4.37,0.32-4.37,0.32c0.47,0.8,0.75,1.71,0.75,2.7 c0,2.97-2.41,5.38-5.38,5.38c-2.97,0-5.38-2.41-5.38-5.38c0-0.3,0.07-1.43,0.55-2.37c-4.46,2.12-7.85,0.31-7.85,0.31 c-0.11,0.67-0.18,1.36-0.18,2.06c0,7.09,5.77,12.86,12.86,12.86S79.04,25.9,79.04,18.8C79.04,16.42,78.38,14.19,77.24,12.28z" fill="#9E740B"/>
    </g>
    <path d="M10.46,97.8c6.77-6.65,10.99-8.89,12.71-18.53c1.72-9.64,0.34-29.95,7.92-43.25 C38.01,23.84,50.71,18.8,63.1,18.8c0.3,0,0.6,0.02,0.9,0.02c0.3-0.01,0.6-0.02,0.9-0.02c12.39,0,25.09,5.04,32.01,17.21 c7.57,13.31,6.2,33.62,7.92,43.25c1.72,9.64,5.94,11.88,12.71,18.53c2.92,2.87,6.45,7.44,6.46,10.38c0.01,2.94-1.49,4.01-5.06,5.51 c-10.1,4.25-23.6,8.37-54.94,8.37s-44.84-4.12-54.94-8.37c-3.57-1.5-5.07-2.56-5.06-5.51C4.01,105.24,7.54,100.67,10.46,97.8z" fill="#FFCA28"/>
    <path d="M113.7,108.38c0-4.43-22.25-8.02-49.7-8.02s-49.7,3.59-49.7,8.02s22.25,9.72,49.7,9.72 S113.7,112.81,113.7,108.38z" fill="#4E342E"/>
    <path d="M93.84,44.79c0.37,1.41,0.68,2.82,0.93,4.2c1.27,7.06,1.04,14.3,1.61,21.45 c0.77,9.57,2.47,14.61,6.34,19.11c0.51,0.59-0.01,1.5-0.78,1.38c-5.17-0.79-9.32-1.58-14.05-4.7c-7.06-4.65-8.8-13.4-8.85-21.26 c-0.08-11.7,0.14-23.03-0.79-27.33c-1.29-5.99-2.49-9.18-4.45-12.09c-2.99-4.44,8.62,1.72,10.44,3.09 C89.31,32.47,92.22,38.63,93.84,44.79z" fill="#E2A610"/>
    <path d="M30.89,60.32c-0.12-7.58-0.06-15.42,2.96-22.38c1.81-4.16,4.88-7.91,8.8-10.24 c3.08-1.83,9.34-3.85,11.59,0.3c0.45,0.83,0.63,1.8,0.66,2.75c0.08,3.31-1.64,6.37-3.31,9.23c-4.94,8.48-6.91,17.75-9.52,27.15 c-1.07,3.88-2.43,7.75-4.76,11.03c-1.6,2.25-10.51,10.25-8.47,3.02C30.8,74.19,31,67.6,30.89,60.32z" fill="#FFF59D"/>
    <path d="M73.09,106.82c-0.01-1.72-0.94-2.71-3.08-3.45c-4.44-1.53-10-1.25-13.24,0.49 c-3.4,1.82-1.04,11.91,7.23,11.91S73.1,108.13,73.09,106.82z" fill="#E2A610"/>
    <path d="M33.25,91.79c-8.78,1.54-15.14,4.87-17.89,7.57c-2.18,2.13-2.18,3.81,1.66,2.06 c2.89-1.32,12.15-4,20.26-4.81c13.93-1.4,22.53-1.43,23.96-1.4c3.35,0.07,3.63-2.51-3.14-3.42C51.33,90.89,42.03,90.26,33.25,91.79 z" fill="#FFF59D"/>
    <path d="M60.46,113.82c1.16,0.8,2.7,1.19,4,0.65c1.3-0.54,2.14-2.19,1.5-3.44c-0.25-0.49-0.68-0.86-1.11-1.2 c-1.19-0.93-2.51-1.69-3.91-2.25c-0.55-0.22-1.13-0.42-1.73-0.38c-0.59,0.03-1.21,0.34-1.44,0.89 C56.78,110.34,58.76,112.66,60.46,113.82z" fill="#FFF59D"/>
  </g>
</svg>

<svg viewBox="0 0 128 128" xmlns="http://www.w3.org/2000/svg">
  <defs/>
  <path d="M53.32,18.8 C53.32,11.71 59.09,5.94 66.18,5.94 C73.27,5.94 79.04,11.71 79.04,18.8 C79.04,25.89 73.27,31.66 66.18,31.66 C59.09,31.66 53.32,25.9 53.32,18.8 Z M60.8,18.8 C60.8,21.77 63.21,24.18 66.18,24.18 C69.15,24.18 71.56,21.77 71.56,18.8 C71.56,15.83 69.15,13.42 66.18,13.42 C63.21,13.42 60.8,15.84 60.8,18.8 Z" fill="#E2A610"/>
  <path d="M77.24,12.28 C77.24,12.28 77.81,14.55 75.18,15.79 C72.55,17.02 70.81,16.11 70.81,16.11 C71.28,16.91 71.56,17.82 71.56,18.81 C71.56,21.78 69.15,24.19 66.18,24.19 C63.21,24.19 60.8,21.78 60.8,18.81 C60.8,18.51 60.87,17.38 61.35,16.44 C56.89,18.56 53.5,16.75 53.5,16.75 C53.39,17.42 53.32,18.11 53.32,18.81 C53.32,25.9 59.09,31.67 66.18,31.67 C73.27,31.67 79.04,25.9 79.04,18.8 C79.04,16.42 78.38,14.19 77.24,12.28 Z" fill="#9E740B"/>
  <path d="M10.46,97.8 C17.23,91.15 21.45,88.91 23.17,79.27 C24.89,69.63 23.51,49.32 31.09,36.02 C38.01,23.84 50.71,18.8 63.1,18.8 C63.4,18.8 63.7,18.82 64,18.82 C64.3,18.81 64.6,18.8 64.9,18.8 C77.29,18.8 89.99,23.84 96.91,36.01 C104.48,49.32 103.11,69.63 104.83,79.26 C106.55,88.9 110.77,91.14 117.54,97.79 C120.46,100.66 123.99,105.23 124,108.17 C124.01,111.11 122.51,112.18 118.94,113.68 C108.84,117.93 95.34,122.05 64,122.05 C32.66,122.05 19.16,117.93 9.06,113.68 C5.49,112.18 3.99,111.12 4,108.17 C4.01,105.24 7.54,100.67 10.46,97.8 Z" fill="#FFCA28"/>
  <path d="M113.7,108.38 C113.7,103.95 91.45,100.36 64,100.36 C36.55,100.36 14.3,103.95 14.3,108.38 C14.3,112.81 36.55,118.1 64,118.1 C91.45,118.1 113.7,112.81 113.7,108.38 Z" fill="#4E342E"/>
  <path d="M93.84,44.79 C94.21,46.2 94.52,47.61 94.77,48.99 C96.04,56.05 95.81,63.29 96.38,70.44 C97.15,80.01 98.85,85.05 102.72,89.55 C103.23,90.14 102.71,91.05 101.94,90.93 C96.77,90.14 92.62,89.35 87.89,86.23 C80.83,81.58 79.09,72.83 79.04,64.97 C78.96,53.27 79.18,41.94 78.25,37.64 C76.96,31.65 75.76,28.46 73.8,25.55 C70.81,21.11 82.42,27.27 84.24,28.64 C89.31,32.47 92.22,38.63 93.84,44.79 Z" fill="#E2A610"/>
  <path d="M30.89,60.32 C30.77,52.74 30.83,44.9 33.85,37.94 C35.66,33.78 38.73,30.03 42.65,27.7 C45.73,25.87 51.99,23.85 54.24,28 C54.69,28.83 54.87,29.8 54.9,30.75 C54.98,34.06 53.26,37.12 51.59,39.98 C46.65,48.46 44.68,57.73 42.07,67.13 C41,71.01 39.64,74.88 37.31,78.16 C35.71,80.41 26.8,88.41 28.84,81.18 C30.8,74.19 31,67.6 30.89,60.32 Z" fill="#FFF59D"/>
  <path d="M73.09,106.82 C73.08,105.1 72.15,104.11 70.01,103.37 C65.57,101.84 60.01,102.12 56.77,103.86 C53.37,105.68 55.73,115.77 64,115.77 C72.27,115.77 73.1,108.13 73.09,106.82 Z" fill="#E2A610"/>
  <path d="M33.25,91.79 C24.47,93.33 18.11,96.66 15.36,99.36 C13.18,101.49 13.18,103.17 17.02,101.42 C19.91,100.1 29.17,97.42 37.28,96.61 C51.21,95.21 59.81,95.18 61.24,95.21 C64.59,95.28 64.87,92.7 58.1,91.79 C51.33,90.89 42.03,90.26 33.25,91.79 Z" fill="#FFF59D"/>
  <path d="M60.46,113.82 C61.62,114.62 63.16,115.01 64.46,114.47 C65.76,113.93 66.6,112.28 65.96,111.03 C65.71,110.54 65.28,110.17 64.85,109.83 C63.66,108.9 62.34,108.14 60.94,107.58 C60.39,107.36 59.81,107.16 59.21,107.2 C58.62,107.23 58,107.54 57.77,108.09 C56.78,110.34 58.76,112.66 60.46,113.82 Z" fill="#FFF59D"/>
</svg>
